symbols/web/add_box/materialsymbolssharp/add_box_wght600fill1_24px.svg

<svg xmlns="http://www.w3.org/2000/svg" height="24" width="24"><path d="M10.8 17.125h2.4V13.2h3.925v-2.4H13.2V6.875h-2.4V10.8H6.875v2.4H10.8Zm-8.275 4.35V2.525h18.95v18.95Z"/></svg>

<svg xmlns="http://www.w3.org/2000/svg" height="24" width="24"><path d="M10.8 17.125H13.2V13.2H17.125V10.8H13.2V6.875H10.8V10.8H6.875V13.2H10.8ZM2.525 21.475V2.525H21.475V21.475Z"/></svg>
